X:1
T: Brenda Burness
C:Bruce Shawyer
R:Reel
Q:232
K:A
M:4/4
L:1/8
|:E2|"A"A2A2 A2c2|ed cd e4|"Bm"dc BA "E7"G2E2|"Bm"dc BA "E7"GFE2|
"A"A2A2 AB cd|ed cd e4|"Bm"dc BA "E7"GE FG|"A"A2A2 A2:|
|:e2|"A"c2e2 e2a2|"Bm"fe de f4|fe de fe d2|"E7"gf ed c2B2|
"A"cde2 ef ga|"Bm"fe de f4|"E7"gf ed cB AG|"A"A2A2 A2:|
